svg/icon/zen.svg

<svg height="32" viewBox="0 0 32 32" width="32" xmlns="http://www.w3.org/2000/svg" xmlns:xlink="http://www.w3.org/1999/xlink"><defs><linearGradient id="a" x1="50%" x2="50%" y1="0%" y2="100%"><stop offset="0" stop-color="#fff" stop-opacity=".5"/><stop offset="1" stop-opacity=".5"/></linearGradient><circle id="b" cx="16" cy="15" r="15"/><filter id="c" height="111.7%" width="111.7%" x="-5.8%" y="-4.2%"><feOffset dy=".5" in="SourceAlpha" result="shadowOffsetOuter1"/><feGaussianBlur in="shadowOffsetOuter1" result="shadowBlurOuter1" stdDeviation=".5"/><feComposite in="shadowBlurOuter1" in2="SourceAlpha" operator="out" result="shadowBlurOuter1"/><feColorMatrix in="shadowBlurOuter1" values="0 0 0 0 0   0 0 0 0 0   0 0 0 0 0  0 0 0 0.199473505 0"/></filter><path id="d" d="m18.665794 16.298457-1.3446781-.804707v-3.6268382l-3.1603219-1.8455883v-1.67239054l4.505 2.62061054zm-1.8346137-3.669323v1.5341013l-3.2154078 1.8882353v3.7404412l-1.2998068.7770226v-5.2873044zm-2.2965017 3.4846213 1.4446776-.8347112 3.0877253 1.8389706 3.1088842-1.8389706 1.4001284.8368664-4.5237513 2.6644434zm4.5174459 3.1351418 4.918691-2.8970589v5.7727942l-4.918691 2.8753676-4.918691-2.8904412v-5.7639706zm-7.1374464-4.1996324v5.7595588l-4.9146781-2.8625v-5.7830882l4.8975322-2.88639706 4.9336481 2.88419116zm12.0561374-7.18860294v5.79375004l-4.903734 2.8841911v-5.8025735l-4.9062875-2.85404411 4.9124893-2.88198529z"/><filter id="e" height="117.5%" width="120.6%" x="-10.3%" y="-6.2%"><feOffset dy=".5" in="SourceAlpha" result="shadowOffsetOuter1"/><feGaussianBlur in="shadowOffsetOuter1" result="shadowBlurOuter1" stdDeviation=".5"/><feColorMatrix in="shadowBlurOuter1" values="0 0 0 0 0   0 0 0 0 0   0 0 0 0 0  0 0 0 0.204257246 0"/></filter></defs><g fill="none" fill-rule="evenodd"><use fill="#000" filter="url(#c)" xlink:href="#b"/><use fill="#234871" xlink:href="#b"/><use fill="url(#a)" xlink:href="#b"/><circle cx="16" cy="15" r="14.5" stroke="#000" stroke-opacity=".097"/><g fill-rule="nonzero"><use fill="#000" filter="url(#e)" xlink:href="#d"/><use fill="#fff" fill-rule="evenodd" xlink:href="#d"/></g></g></svg>

<svg xmlns="http://www.w3.org/2000/svg" xmlns:xlink="http://www.w3.org/1999/xlink" width="32" height="32" viewBox="0 0 32 32">
  <defs>
    <linearGradient id="zen-c" x1="50%" x2="50%" y1="0%" y2="100%">
      <stop offset="0%" stop-color="#FFF" stop-opacity=".5"/>
      <stop offset="100%" stop-opacity=".5"/>
    </linearGradient>
    <circle id="zen-b" cx="16" cy="15" r="15"/>
    <filter id="zen-a" width="111.7%" height="111.7%" x="-5.8%" y="-4.2%" filterUnits="objectBoundingBox">
      <feOffset dy=".5" in="SourceAlpha" result="shadowOffsetOuter1"/>
      <feGaussianBlur in="shadowOffsetOuter1" result="shadowBlurOuter1" stdDeviation=".5"/>
      <feComposite in="shadowBlurOuter1" in2="SourceAlpha" operator="out" result="shadowBlurOuter1"/>
      <feColorMatrix in="shadowBlurOuter1" values="0 0 0 0 0   0 0 0 0 0   0 0 0 0 0  0 0 0 0.199473505 0"/>
    </filter>
    <path id="zen-e" d="M18.665794,16.298457 L17.3211159,15.49375 L17.3211159,11.8669118 L14.160794,10.0213235 L14.160794,8.34893296 L18.665794,10.9695435 L18.665794,16.298457 Z M16.8311803,12.629134 L16.8311803,14.1632353 L13.6157725,16.0514706 L13.6157725,19.7919118 L12.3159657,20.5689344 L12.3159657,15.28163 L16.8311803,12.629134 Z M14.5346786,16.1137553 L15.9793562,15.2790441 L19.0670815,17.1180147 L22.1759657,15.2790441 L23.5760941,16.1159105 L19.0523428,18.7803539 L14.5346786,16.1137553 Z M19.0521245,19.2488971 L23.9708155,16.3518382 L23.9708155,22.1246324 L19.0521245,25 L14.1334335,22.1095588 L14.1334335,16.3455882 L19.0521245,19.2488971 Z M11.9146781,15.0492647 L11.9146781,20.8088235 L7,17.9463235 L7,12.1632353 L11.8975322,9.27683824 L16.8311803,12.1610294 L11.9146781,15.0492647 Z M23.9708155,7.86066176 L23.9708155,13.6544118 L19.0670815,16.5386029 L19.0670815,10.7360294 L14.160794,7.88198529 L19.0732833,5 L23.9708155,7.86066176 Z"/>
    <filter id="zen-d" width="120.6%" height="117.5%" x="-10.3%" y="-6.2%" filterUnits="objectBoundingBox">
      <feOffset dy=".5" in="SourceAlpha" result="shadowOffsetOuter1"/>
      <feGaussianBlur in="shadowOffsetOuter1" result="shadowBlurOuter1" stdDeviation=".5"/>
      <feColorMatrix in="shadowBlurOuter1" values="0 0 0 0 0   0 0 0 0 0   0 0 0 0 0  0 0 0 0.204257246 0"/>
    </filter>
  </defs>
  <g fill="none" fill-rule="evenodd">
    <use fill="#000" filter="url(#zen-a)" xlink:href="#zen-b"/>
    <use fill="#234871" xlink:href="#zen-b"/>
    <use fill="url(#zen-c)" style="mix-blend-mode:soft-light" xlink:href="#zen-b"/>
    <circle cx="16" cy="15" r="14.5" stroke="#000" stroke-opacity=".097"/>
    <g fill-rule="nonzero">
      <use fill="#000" filter="url(#zen-d)" xlink:href="#zen-e"/>
      <use fill="#FFF" fill-rule="evenodd" xlink:href="#zen-e"/>
    </g>
  </g>
</svg>
